!!!OTL: American Woods
!!!ONM: 99.
**kern
*clefG2
*k[f#c#g#d#]
*E:
*M4/4
*MM120
{(8e
8g#)
=1
4g#
4g#
4f#
4e
=2
4c#
4B
4r
(8e
8f#)
=3
4g#
2e
4d#
=4
2e
4r}
{8b
8b
=5
2cc#
4dd#
4ee
=6
(4cc#
4b)
4g#
4g#
=7
(4e
4g#)
4f#
4e
=8
2c#
4r}
{4b
=9
4cc#
4dd#
(4ee
4cc#)
=10
4b
4.g#
8r
4g#
=11
(4e
4g#)
4f#
4e
=12
2.c#}
{4e
=13
4f#
4a
4g#
4f#
=14
(4e
4c#)
4B
4e
=15
(4f#
4a)
4e
4d#
=16
2.e}
==
*-
!!!CNT: Folksongs of Maritime Canada
!!!MRD: 1928///-1932///
!!!OCL: Helen Creighton
!!!YOR: Songs and Ballads from Nova Scotia
!!!PPR: J.M. Dent & Sons, Limited
!!!PPP: Toronto, Canada
!!!PDT: 1932///
!!!reprint: Dover Publications, 1992: ISBN 0-486-21703-5
!!!ENC1: Craig Stuart Sapp (music and bibliographic data)                       
!!!ENC2: Marcus Pearce (phrase markings and key designations)                   
!!!ENC3: Darrell Conklin (phrase markings and key designations)   
!!!END: 2002/04/10/
!!!EEV: 2004/06/05
!!!MPN: Mr. Gordon Young
!!!PPG: 214
!!!EFL: 100/152
!!!ARE: Canada; Nova Scotia
!!!verses: 15
!!!VTS: 1562634530
